packages/dnb-ui-lib/assets/icons/download.svg

<svg width="16" height="16" viewBox="0 0 16 16" fill="none" xmlns="http://www.w3.org/2000/svg">
<path d="M5.87408 8.75092C5.58119 8.45803 5.10631 8.45803 4.81342 8.75092C4.52053 9.04381 4.52053 9.51869 4.81342 9.81158L5.87408 8.75092ZM8 11.9375L7.46967 12.4678C7.76256 12.7607 8.23744 12.7607 8.53033 12.4678L8 11.9375ZM11.1866 9.81158C11.4795 9.51869 11.4795 9.04381 11.1866 8.75092C10.8937 8.45803 10.4188 8.45803 10.1259 8.75092L11.1866 9.81158ZM8.75 3.5C8.75 3.08579 8.41421 2.75 8 2.75C7.58579 2.75 7.25 3.08579 7.25 3.5H8.75ZM3 14.25C2.58579 14.25 2.25 14.5858 2.25 15C2.25 15.4142 2.58579 15.75 3 15.75V14.25ZM13 15.75C13.4142 15.75 13.75 15.4142 13.75 15C13.75 14.5858 13.4142 14.25 13 14.25V15.75ZM4.81342 9.81158L7.46967 12.4678L8.53033 11.4072L5.87408 8.75092L4.81342 9.81158ZM8.53033 12.4678L11.1866 9.81158L10.1259 8.75092L7.46967 11.4072L8.53033 12.4678ZM7.25 3.5V11.9375H8.75V3.5H7.25ZM3 15.75H13V14.25H3V15.75Z" fill="black"/>
</svg>

<svg width="16" height="16" viewBox="0 0 16 16" fill="none" xmlns="http://www.w3.org/2000/svg"><path d="M5.874 8.75a.75.75 0 00-1.06 1.062l1.06-1.061zM8 11.939l-.53.53a.75.75 0 001.06 0l-.53-.53zm3.187-2.126a.75.75 0 10-1.061-1.061l1.06 1.06zM8.75 3.5a.75.75 0 00-1.5 0h1.5zM3 14.25a.75.75 0 000 1.5v-1.5zm10 1.5a.75.75 0 000-1.5v1.5zM4.813 9.812l2.657 2.656 1.06-1.06L5.874 8.75l-1.06 1.06zm3.717 2.656l2.657-2.656-1.061-1.061-2.656 2.656 1.06 1.06zM7.25 3.5v8.438h1.5V3.5h-1.5zM3 15.75h10v-1.5H3v1.5z" fill="#000"/></svg>
